!!!COM: Robert Franz
!!!CNT: Deutscher
!!!TXO: Deutsche 
!!!OTL: "Er ist gekommen"
!!!OPS: Op. 4
!!!ONM: No. 7
!!!ONB: Original key: Ab Major
!!!LYR: Fr Ruckert
!!!ENC: Brian Bice
!!!YOR: Vocal Album, G. Schirmer, Inc., 1907
!!!ODT: 1845/
!!NB: Vocal melody and text only encoded.
**kern	**silbe
*clefG2	*
*k[f#]	*
*M6/8	*
=1	=1
{4.g	{Er
4f#	ist
8g	ge-
=2	=2
4.a	-kom-
4d	-men
8d	in
=3	=3
(4.b	Sturm
4a#)	|
8b	und
=4	=4
4.cc#	Re-
4f#}	-gen,}
8r	.
=5	=5
{4.dd	{ihm
4cc#	schlug
8dd	be-
=6	=6
[4.ee	-klom-
8ee]	|
8dd	-men
8b	mein
=7	=7
(4.gn	Herz
4b)	|
8a	ent-
=8	=8
4.g	-ge-
4f#}	-gen.}
8r	.
=9	=9
{4.a	{Wie
4a	konnt'
8a	ich
=10	=10
4.cc	ah-
4g}	-nen,}
8r	.
=11	=11
{4.b	{dass
4b	sei-
8b	-ne
=12	=12
4.dd	Bah-
4a}	-nen}
{8a	{sich
=13	=13
4.ee	ei-
4.dd	-nen
=14	=14
(4.cc#	soll-
4b)	|
8a	-ten
=15	=15
(4.g	mei-
4f#)	|
8g	-nen
=16	=16
(4.cc	We-
4.f#)	|
=17	=17
4g}	-gen?}
8r	.
4r	.
8r	.
=24	=24
{4.g	{Er
4f#	ist
8g	ge-
=25	=25
4.a	-kom-
4d	-men
8d	in
=26	=26
(4.b	Sturm
4a#)	|
8b	und
=27	=27
4.cc#	Re-
4f#}	-gen,}
8r	.
=28	=28
{4.dd	{er
4cc#	hat
8dd	ge-
=29	=29
[4.ee	-nom-
8ee]	|
8dd	-men
8b	mein
=30	=30
(4.gn	Herz
4b)	|
8a	ver-
=31	=31
4.g	-we-
4f#}	-gen}
8r	.
=32	=32
{4.a	{Nahm
4a	er
8a	das
=33	=33
4.cc	mei-
4g}	-ne?}
8r	.
=34	=34
{4.b	{nahm
4b	ich
8b	das
=35	=35
4.dd	sei-
4a}	-ne?}
{8a	{die
=36	=36
4.ee	bei-
4.dd	-den
=37	=37
(4.cc	ka-
4b)	|
8a	-men
=38	=38
(4.g	sich
4f#)	|
8g	ent-
=39	=39
4.cc	-ge-
4.f#	|
=40	=40
4g}	-gen.}
8r	.
4r	.
8r	.
=47	=47
{4.g	{Er
4f#	ist
8g	ge-
=48	=48
4.a	-kom-
4d	-men
8d	in
=49	=49
(4.b	Sturm
4a#)	|
8b	und
=50	=50
4.cc#	Re-
4f#}	-gen.}
8r	.
=51	=51
{4.dd	{Nun
4cc#	ist
8dd	ent-
=52	=52
[4.ee	-glom-
8ee]	|
8dd	-men
8b	des
=53	=53
(4.gn	Fru2h-
4b)	|
8a	-lings
=54	=54
4.g	Se-
4f#}	-gen.}
{8a	{Der
=55	=55
4.dd	Lieb-
4f#	-ste
8b-	zieht
=56	=56
4.a	wei-
4g}	-ter,}
{8dd	{ich
=57	=57
(4.dd	seh'
4a)	|
8c	es
=58	=58
4.bn	hei-
4g}	-ter,}
{8bn	{denn
=59	=59
4.ee	mein
4.dd	bleibt
=60	=60
[4.cc	er
4cc]	|
8e	auf
=61	=61
(4.g	al-
4f#)	|
8g	-len,
=62	=62
[4.b	al-
4b]	|
8b	-len
=63	=63
2.dd	We-
=64	=64
4b}	-gen.}
8r	.
4r	.
8r	.
*-	*-
